!!!COM: Mozart	
!!!OTL: 12 Variations on "Ah Vous dirais-je, Maman" for the Piano,	
!!!Variation: 12 a	
**kern	**kern
*M3/4	*M3/4
=-	=-
(16CCLL	4e 4g 4cc
16C	.
16BB	.
16CJJ	.
16DLL	4r
16C	.
16BB	.
16CJJ	.
16DLL	(8.ccL
16C	.
16BB	.
16CJJ)	32bLL
.	32ccJJJ
=	=
(16EELL	4gg)
16C	.
16BB	.
16CJJ	.
16DLL	4r
16C	.
16BB	.
16CJJ	.
16DLL	(8.ccL
16C	.
16BB	.
16CJJ)	32bLL
.	32ccJJJ)
=	=
(16FFLL	4cc 4gg 4aa
16C	.
16BB	.
16CJJ	.
16DLL	4cc 4ff 4aa
16C	.
16BB	.
16CJJ	.
16DLL	4cc 4ff 4aa
16C	.
16BB	.
16CJJ)	.
=	=
(16CCLL	4cc 4ee 4gg
16C	.
16BB	.
16CJJ	.
16DLL	4r
16C	.
16BB	.
16CJJ)	.
(16CC#LL	(8.ggL
16C#	.
16BB	.
16C#JJ)	32ff#LL
.	32ggJJJ
=	=
(16DDLL	4ff#)
16D	.
16C#	.
16DJJ	.
16ELL	4r
16D	.
16C#	.
16DJJ)	.
(16BBBLL	(8.ffL
16BB	.
16AA	.
16BBJJ)	32eeLL
.	32ffJJJ
=	=
(16CCLL	4ee)
16C	.
16BB	.
16CJJ	.
16DLL	4r
16C	.
16BB	.
16CJJ)	.
(16AAALL	(8.ccL
16AA	.
16GG#	.
16AAJJ)	32bLL
.	32ccJJJ
=	=
(16FFFLL	4dd
16FF	.
16EE	.
16FFJJ	.
16GGLL	4ff)
16FF	.
16EE	.
16FFJJ)	.
(16GGGLL	4d 4f 4b
16GG	.
16FF#	.
16GGJJ)	.
=	=
(16CCLL	4e 4g 4cc
16DD	.
16EE	.
16FFJJ	.
16GGLL	4r
16AA	.
16BB	.
16CJJ	.
4CC)	4r
=	=
*-	*-
